icon-themes/breeze_svg/cmd/sc_repeat.svg

<svg viewBox="0 0 16 16" xmlns="http://www.w3.org/2000/svg">/&gt;<path d="m5 2v1h-2v11h5v-1h-4v-9h1 6 1v5h1v-6h-2v-1zm0 3v1h6v-1zm0 2v1h5v-1zm0 2v1h3v-1zm6 1-3 1.5 3 1.5v-1h3v-1-1h-1v1h-2z" fill="#4d4d4d"/></svg>

<svg xmlns="http://www.w3.org/2000/svg" viewBox="0 0 16 16">
     />
 <path 
     style="fill:#4d4d4d" 
     d="M 5 2 L 5 3 L 3 3 L 3 14 L 8 14 L 8 13 L 4 13 L 4 4 L 5 4 L 11 4 L 12 4 L 12 9 L 13 9 L 13 3 L 11 3 L 11 2 L 5 2 z M 5 5 L 5 6 L 11 6 L 11 5 L 5 5 z M 5 7 L 5 8 L 10 8 L 10 7 L 5 7 z M 5 9 L 5 10 L 8 10 L 8 9 L 5 9 z M 11 10 L 8 11.5 L 11 13 L 11 12 L 14 12 L 14 11 L 14 10 L 13 10 L 13 11 L 11 11 L 11 10 z "
     />
 </svg>
